devices/24/input-keyboard-symbolic.svg

<?xml version="1.0" encoding="UTF-8" standalone="no"?>
<svg
   version="1.1"
   id="svg4220"
   viewBox="0 0 24 24"
   height="24"
   width="24"
   sodipodi:docname="input-keyboard-symbolic.svg"
   inkscape:version="1.2.2 (b0a8486541, 2022-12-01)"
   xmlns:inkscape="http://www.inkscape.org/namespaces/inkscape"
   xmlns:sodipodi="http://sodipodi.sourceforge.net/DTD/sodipodi-0.dtd"
   xmlns="http://www.w3.org/2000/svg"
   xmlns:svg="http://www.w3.org/2000/svg"
   xmlns:rdf="http://www.w3.org/1999/02/22-rdf-syntax-ns#"
   xmlns:cc="http://creativecommons.org/ns#"
   xmlns:dc="http://purl.org/dc/elements/1.1/">
  <sodipodi:namedview
     id="namedview7593"
     pagecolor="#ffffff"
     bordercolor="#666666"
     borderopacity="1.0"
     inkscape:showpageshadow="2"
     inkscape:pageopacity="0.0"
     inkscape:pagecheckerboard="0"
     inkscape:deskcolor="#d1d1d1"
     showgrid="false"
     inkscape:zoom="39.333334"
     inkscape:cx="11.911017"
     inkscape:cy="8.7711864"
     inkscape:window-width="1326"
     inkscape:window-height="860"
     inkscape:window-x="-388"
     inkscape:window-y="389"
     inkscape:window-maximized="0"
     inkscape:current-layer="svg4220" />
  <defs
     id="defs4222" />
  <metadata
     id="metadata4225">
    <rdf:RDF>
      <cc:Work
         rdf:about="">
        <dc:format>image/svg+xml</dc:format>
        <dc:type
           rdf:resource="http://purl.org/dc/dcmitype/StillImage" />
      </cc:Work>
    </rdf:RDF>
  </metadata>
  <path
     id="rect5505-21-3-8-5-2"
     style="color:#000000;display:inline;overflow:visible;visibility:visible;opacity:1;fill:#666666;fill-opacity:1;fill-rule:nonzero;stroke:none;stroke-width:0.999995;marker:none;enable-background:accumulate"
     d="M 2.5 5 C 1.6690008 5 1 5.6690008 1 6.5 L 1 17.5 C 1 18.330999 1.6690008 19 2.5 19 L 21.5 19 C 22.330999 19 23 18.330999 23 17.5 L 23 6.5 C 23 5.6690008 22.330999 5 21.5 5 L 2.5 5 z M 2.75 6 L 21.25 6 C 21.6655 6 22 6.3345004 22 6.75 L 22 17.25 C 22 17.6655 21.6655 18 21.25 18 L 2.75 18 C 2.3345004 18 2 17.6655 2 17.25 L 2 6.75 C 2 6.3345004 2.3345004 6 2.75 6 z M 3.1992188 7 C 3.0884186 7 3 7.1115001 3 7.25 L 3 7.75 C 3 7.8884999 3.0884191 8 3.1992188 8 L 4.8007812 8 C 4.9115811 8 5 7.8884999 5 7.75 L 5 7.25 C 5 7.1115001 4.9115809 7 4.8007812 7 L 3.1992188 7 z M 6.1992188 7 C 6.0884187 7 6 7.1115001 6 7.25 L 6 7.75 C 6 7.8884999 6.0884191 8 6.1992188 8 L 7.8007812 8 C 7.9115811 8 8 7.8884999 8 7.75 L 8 7.25 C 8 7.1115001 7.9115809 7 7.8007812 7 L 6.1992188 7 z M 9.1992188 7 C 9.0884187 7 9 7.1115001 9 7.25 L 9 7.75 C 9 7.8884999 9.0884191 8 9.1992188 8 L 10.800781 8 C 10.911581 8 11 7.8884999 11 7.75 L 11 7.25 C 11 7.1115001 10.91158 7 10.800781 7 L 9.1992188 7 z M 12.199219 7 C 12.088419 7 12 7.1115001 12 7.25 L 12 7.75 C 12 7.8884999 12.08842 8 12.199219 8 L 13.800781 8 C 13.911581 8 14 7.8884999 14 7.75 L 14 7.25 C 14 7.1115001 13.91158 7 13.800781 7 L 12.199219 7 z M 15.199219 7 C 15.088419 7 15 7.1115001 15 7.25 L 15 7.75 C 15 7.8884999 15.08842 8 15.199219 8 L 16.800781 8 C 16.911581 8 17 7.8884999 17 7.75 L 17 7.25 C 17 7.1115001 16.91158 7 16.800781 7 L 15.199219 7 z M 18.300781 7 C 18.134581 7 18 7.1115001 18 7.25 L 18 7.75 C 18 7.8884999 18.134581 8 18.300781 8 L 20.699219 8 C 20.865419 8 21 7.8884999 21 7.75 L 21 7.25 C 21 7.1115001 20.865419 7 20.699219 7 L 18.300781 7 z M 3.1992188 9 C 3.0884186 9 3 9.1115001 3 9.25 L 3 10.75 C 3 10.8885 3.0884187 11 3.1992188 11 L 4.8007812 11 C 4.9115811 11 5 10.8885 5 10.75 L 5 9.25 C 5 9.1115001 4.9115812 9 4.8007812 9 L 3.1992188 9 z M 6.1992188 9 C 6.0884187 9 6 9.1115001 6 9.25 L 6 10.75 C 6 10.8885 6.0884188 11 6.1992188 11 L 7.8007812 11 C 7.9115811 11 8 10.8885 8 10.75 L 8 9.25 C 8 9.1115001 7.9115812 9 7.8007812 9 L 6.1992188 9 z M 9.1992188 9 C 9.0884187 9 9 9.1115001 9 9.25 L 9 10.75 C 9 10.8885 9.0884187 11 9.1992188 11 L 10.800781 11 C 10.911581 11 11 10.8885 11 10.75 L 11 9.25 C 11 9.1115001 10.911581 9 10.800781 9 L 9.1992188 9 z M 12.199219 9 C 12.088419 9 12 9.1115001 12 9.25 L 12 10.75 C 12 10.8885 12.08842 11 12.199219 11 L 13.800781 11 C 13.911581 11 14 10.8885 14 10.75 L 14 9.25 C 14 9.1115001 13.911581 9 13.800781 9 L 12.199219 9 z M 15.199219 9 C 15.088419 9 15 9.1115001 15 9.25 L 15 10.75 C 15 10.8885 15.08842 11 15.199219 11 L 16.800781 11 C 16.911581 11 17 10.8885 17 10.75 L 17 9.25 C 17 9.1115001 16.911581 9 16.800781 9 L 15.199219 9 z M 18.300781 9 C 18.134581 9 18 9.1115001 18 9.25 L 18 10.75 C 18 10.8885 18.134581 11 18.300781 11 L 20.699219 11 C 20.865419 11 21 10.8885 21 10.75 L 21 9.25 C 21 9.1115001 20.865419 9 20.699219 9 L 18.300781 9 z M 3.25 12 C 3.0838003 12 3 12.1115 3 12.25 L 3 13.75 C 3 13.8885 3.0838002 14 3.25 14 L 5.75 14 C 5.9161997 14 6 13.8885 6 13.75 L 6 12.25 C 6 12.1115 5.9161997 12 5.75 12 L 3.25 12 z M 7.1992188 12 C 7.0884187 12 7 12.1115 7 12.25 L 7 13.75 C 7 13.8885 7.0884188 14 7.1992188 14 L 8.8007812 14 C 8.9115813 14 9 13.8885 9 13.75 L 9 12.25 C 9 12.1115 8.9115813 12 8.8007812 12 L 7.1992188 12 z M 10.199219 12 C 10.088419 12 10 12.1115 10 12.25 L 10 13.75 C 10 13.8885 10.08842 14 10.199219 14 L 11.800781 14 C 11.911581 14 12 13.8885 12 13.75 L 12 12.25 C 12 12.1115 11.911581 12 11.800781 12 L 10.199219 12 z M 13.199219 12 C 13.088419 12 13 12.1115 13 12.25 L 13 13.75 C 13 13.8885 13.08842 14 13.199219 14 L 14.800781 14 C 14.911581 14 15 13.8885 15 13.75 L 15 12.25 C 15 12.1115 14.911581 12 14.800781 12 L 13.199219 12 z M 16.199219 12 C 16.088419 12 16 12.1115 16 12.25 L 16 13.75 C 16 13.8885 16.08842 14 16.199219 14 L 17.800781 14 C 17.911581 14 18 13.8885 18 13.75 L 18 12.25 C 18 12.1115 17.911581 12 17.800781 12 L 16.199219 12 z M 19.199219 12 C 19.088419 12 19 12.1115 19 12.25 L 19 13.75 C 19 13.8885 19.08842 14 19.199219 14 L 20.800781 14 C 20.911581 14 21 13.8885 21 13.75 L 21 12.25 C 21 12.1115 20.911581 12 20.800781 12 L 19.199219 12 z M 3.25 15 C 3.0838003 15 3 15.1115 3 15.25 L 3 16.75 C 3 16.8885 3.0838002 17 3.25 17 L 5.75 17 C 5.9161997 17 6 16.8885 6 16.75 L 6 15.25 C 6 15.1115 5.9161997 15 5.75 15 L 3.25 15 z M 7.25 15 C 7.0838003 15 7 15.1115 7 15.25 L 7 16.75 C 7 16.8885 7.0838002 17 7.25 17 L 16.75 17 C 16.9162 17 17 16.8885 17 16.75 L 17 15.25 C 17 15.1115 16.9162 15 16.75 15 L 7.25 15 z M 18.25 15 C 18.0838 15 18 15.1115 18 15.25 L 18 16.75 C 18 16.8885 18.0838 17 18.25 17 L 20.75 17 C 20.9162 17 21 16.8885 21 16.75 L 21 15.25 C 21 15.1115 20.9162 15 20.75 15 L 18.25 15 z " />
</svg>

<?xml version="1.0" encoding="UTF-8" standalone="no"?>
<svg
   xmlns:dc="http://purl.org/dc/elements/1.1/"
   xmlns:cc="http://creativecommons.org/ns#"
   xmlns:rdf="http://www.w3.org/1999/02/22-rdf-syntax-ns#"
   xmlns:svg="http://www.w3.org/2000/svg"
   xmlns="http://www.w3.org/2000/svg"
   xmlns:xlink="http://www.w3.org/1999/xlink"
   version="1.1"
   id="svg4220"
   viewBox="0 0 24 24"
   height="24"
   width="24">
  <defs
     id="defs4222">
    <linearGradient
       gradientTransform="translate(98.620552,-42)"
       gradientUnits="userSpaceOnUse"
       y2="42"
       x2="-19"
       y1="20"
       x1="-19"
       id="linearGradient5177"
       xlink:href="#linearGradient5171" />
    <linearGradient
       id="linearGradient5171">
      <stop
         id="stop5173"
         offset="0"
         style="stop-color:#f8f8f8;stop-opacity:1" />
      <stop
         id="stop5175"
         offset="1"
         style="stop-color:#efeff0;stop-opacity:1" />
    </linearGradient>
    <linearGradient
       y2="42.437775"
       x2="40.290417"
       y1="5.524776"
       x1="40.290417"
       gradientTransform="matrix(0.51351348,0,0,0.35135134,-0.3243253,4.5675826)"
       gradientUnits="userSpaceOnUse"
       id="linearGradient4088"
       xlink:href="#linearGradient3462" />
    <linearGradient
       id="linearGradient3462">
      <stop
         offset="0"
         style="stop-color:#ffffff;stop-opacity:1"
         id="stop3464" />
      <stop
         offset="0.03457849"
         style="stop-color:#ffffff;stop-opacity:0.23529412"
         id="stop3466" />
      <stop
         offset="0.96375686"
         style="stop-color:#ffffff;stop-opacity:0.15686275"
         id="stop3468" />
      <stop
         offset="1"
         style="stop-color:#ffffff;stop-opacity:0.39215687"
         id="stop3470" />
    </linearGradient>
    <linearGradient
       gradientTransform="matrix(0.48888886,0,0,0.44444446,0.26666689,1.2222439)"
       gradientUnits="userSpaceOnUse"
       y2="61.171558"
       x2="24.725653"
       y1="7.8793106"
       x1="24.725653"
       id="linearGradient4534"
       xlink:href="#radialGradient4536" />
    <radialGradient
       gradientTransform="matrix(0,1.2316483,-1.625754,0,18.486966,-28.721977)"
       gradientUnits="userSpaceOnUse"
       id="radialGradient4536"
       r="20.396999"
       cy="3.99"
       cx="23.896">
      <stop
         offset="0"
         style="stop-color:#ffffff;stop-opacity:1"
         id="stop4538" />
      <stop
         offset="0.06562372"
         style="stop-color:#dddddd;stop-opacity:1"
         id="stop4540" />
      <stop
         offset="0.66093999"
         style="stop-color:#abacae;stop-opacity:1"
         id="stop4542" />
      <stop
         offset="1"
         style="stop-color:#89898b;stop-opacity:1"
         id="stop4544" />
    </radialGradient>
    <linearGradient
       x1="302.85715"
       y1="366.64789"
       x2="302.85715"
       y2="609.50507"
       id="linearGradient19619"
       xlink:href="#linearGradient5048"
       gradientUnits="userSpaceOnUse"
       gradientTransform="matrix(0.08449704,0,0,0.01235294,-6.5396456,38.470822)" />
    <linearGradient
       id="linearGradient5048">
      <stop
         id="stop5050"
         style="stop-color:#000000;stop-opacity:0"
         offset="0" />
      <stop
         id="stop5056"
         style="stop-color:#000000;stop-opacity:1"
         offset="0.5" />
      <stop
         id="stop5052"
         style="stop-color:#000000;stop-opacity:0"
         offset="1" />
    </linearGradient>
    <radialGradient
       cx="605.71429"
       cy="486.64789"
       r="117.14286"
       fx="605.71429"
       fy="486.64789"
       id="radialGradient19616"
       xlink:href="#linearGradient5060"
       gradientUnits="userSpaceOnUse"
       gradientTransform="matrix(-0.0289166,0,0,0.01235294,21.026894,38.470848)" />
    <linearGradient
       id="linearGradient5060">
      <stop
         id="stop5062"
         style="stop-color:#000000;stop-opacity:1"
         offset="0" />
      <stop
         id="stop5064"
         style="stop-color:#000000;stop-opacity:0"
         offset="1" />
    </linearGradient>
    <radialGradient
       cx="605.71429"
       cy="486.64789"
       r="117.14286"
       fx="605.71429"
       fy="486.64789"
       id="radialGradient19613"
       xlink:href="#linearGradient5060"
       gradientUnits="userSpaceOnUse"
       gradientTransform="matrix(0.02891661,0,0,0.01235294,26.973101,38.470848)" />
    <linearGradient
       xlink:href="#linearGradient5171"
       id="linearGradient4338"
       gradientUnits="userSpaceOnUse"
       gradientTransform="matrix(0.6,0,0,0.5,28.572331,-2)"
       x1="-19"
       y1="20"
       x2="-19"
       y2="42" />
    <linearGradient
       xlink:href="#linearGradient5171"
       id="linearGradient4388"
       gradientUnits="userSpaceOnUse"
       gradientTransform="matrix(0.6,0,0,0.5,28.572331,-5)"
       x1="-19"
       y1="20"
       x2="-19"
       y2="42" />
    <linearGradient
       xlink:href="#linearGradient5171"
       id="linearGradient4400"
       gradientUnits="userSpaceOnUse"
       gradientTransform="matrix(1.4,0,0,0.5,69.668773,-2)"
       x1="-19"
       y1="20"
       x2="-19"
       y2="42" />
    <linearGradient
       xlink:href="#linearGradient5171"
       id="linearGradient4406"
       gradientUnits="userSpaceOnUse"
       gradientTransform="matrix(0.6,0,0,0.5,43.572331,-2)"
       x1="-19"
       y1="20"
       x2="-19"
       y2="42" />
    <linearGradient
       xlink:href="#linearGradient5171"
       id="linearGradient4418"
       gradientUnits="userSpaceOnUse"
       gradientTransform="matrix(0.4,0,0,0.5,20.048221,-8)"
       x1="-19"
       y1="20"
       x2="-19"
       y2="42" />
    <linearGradient
       xlink:href="#linearGradient5171"
       id="linearGradient4424"
       gradientUnits="userSpaceOnUse"
       gradientTransform="matrix(0.4,0,0,0.5,24.048221,-5)"
       x1="-19"
       y1="20"
       x2="-19"
       y2="42" />
    <linearGradient
       xlink:href="#linearGradient5171"
       id="linearGradient4430"
       gradientUnits="userSpaceOnUse"
       gradientTransform="matrix(0.4,0,0,0.5,30.048221,-5)"
       x1="-19"
       y1="20"
       x2="-19"
       y2="42" />
    <linearGradient
       xlink:href="#linearGradient5171"
       id="linearGradient4436"
       gradientUnits="userSpaceOnUse"
       gradientTransform="matrix(0.4,0,0,0.5,27.048221,-5)"
       x1="-19"
       y1="20"
       x2="-19"
       y2="42" />
    <linearGradient
       xlink:href="#linearGradient5171"
       id="linearGradient4454"
       gradientUnits="userSpaceOnUse"
       gradientTransform="matrix(0.4,0,0,0.5,29.048221,-8)"
       x1="-19"
       y1="20"
       x2="-19"
       y2="42" />
    <linearGradient
       xlink:href="#linearGradient5171"
       id="linearGradient4466"
       gradientUnits="userSpaceOnUse"
       gradientTransform="matrix(0.4,0,0,0.25,20.048221,-0.5)"
       x1="-19"
       y1="20"
       x2="-19"
       y2="42" />
    <linearGradient
       xlink:href="#linearGradient5171"
       id="linearGradient4472"
       gradientUnits="userSpaceOnUse"
       gradientTransform="matrix(0.4,0,0,0.25,26.048221,-0.5)"
       x1="-19"
       y1="20"
       x2="-19"
       y2="42" />
    <linearGradient
       xlink:href="#linearGradient5171"
       id="linearGradient4478"
       gradientUnits="userSpaceOnUse"
       gradientTransform="matrix(0.4,0,0,0.25,32.048221,-0.5)"
       x1="-19"
       y1="20"
       x2="-19"
       y2="42" />
    <linearGradient
       xlink:href="#linearGradient5171"
       id="linearGradient4484"
       gradientUnits="userSpaceOnUse"
       gradientTransform="matrix(0.4,0,0,0.25,23.048221,-0.5)"
       x1="-19"
       y1="20"
       x2="-19"
       y2="42" />
    <linearGradient
       xlink:href="#linearGradient5171"
       id="linearGradient4490"
       gradientUnits="userSpaceOnUse"
       gradientTransform="matrix(0.4,0,0,0.25,29.048221,-0.5)"
       x1="-19"
       y1="20"
       x2="-19"
       y2="42" />
    <linearGradient
       xlink:href="#linearGradient5171"
       id="linearGradient4496"
       gradientUnits="userSpaceOnUse"
       gradientTransform="matrix(0.6,0,0,0.25,43.572331,-0.5)"
       x1="-19"
       y1="20"
       x2="-19"
       y2="42" />
    <linearGradient
       xlink:href="#linearGradient5171"
       id="linearGradient4502"
       gradientUnits="userSpaceOnUse"
       gradientTransform="matrix(0.4,0,0,0.5,26.048221,-8)"
       x1="-19"
       y1="20"
       x2="-19"
       y2="42" />
    <linearGradient
       xlink:href="#linearGradient5171"
       id="linearGradient4508"
       gradientUnits="userSpaceOnUse"
       gradientTransform="matrix(0.4,0,0,0.5,23.048221,-8)"
       x1="-19"
       y1="20"
       x2="-19"
       y2="42" />
    <linearGradient
       xlink:href="#linearGradient5171"
       id="linearGradient4520"
       gradientUnits="userSpaceOnUse"
       gradientTransform="matrix(0.4,0,0,0.5,32.048221,-8)"
       x1="-19"
       y1="20"
       x2="-19"
       y2="42" />
    <linearGradient
       xlink:href="#linearGradient5171"
       id="linearGradient4243"
       gradientUnits="userSpaceOnUse"
       gradientTransform="matrix(0.4,0,0,0.5,24.048221,-2)"
       x1="-19"
       y1="20"
       x2="-19"
       y2="42" />
    <linearGradient
       xlink:href="#linearGradient5171"
       id="linearGradient4253"
       gradientUnits="userSpaceOnUse"
       gradientTransform="matrix(0.4,0,0,0.5,33.048221,-5)"
       x1="-19"
       y1="20"
       x2="-19"
       y2="42" />
    <linearGradient
       xlink:href="#linearGradient5171"
       id="linearGradient4255"
       gradientUnits="userSpaceOnUse"
       gradientTransform="matrix(0.4,0,0,0.5,36.048221,-5)"
       x1="-19"
       y1="20"
       x2="-19"
       y2="42" />
    <linearGradient
       xlink:href="#linearGradient5171"
       id="linearGradient4261"
       gradientUnits="userSpaceOnUse"
       gradientTransform="matrix(0.6,0,0,0.5,43.572331,-8)"
       x1="-19"
       y1="20"
       x2="-19"
       y2="42" />
    <radialGradient
       gradientTransform="matrix(0,1.2316483,-1.625754,0,18.486966,-28.721977)"
       gradientUnits="userSpaceOnUse"
       id="radialGradient4536-3"
       r="20.396999"
       cy="3.99"
       cx="23.896">
      <stop
         offset="0"
         style="stop-color:#ffffff;stop-opacity:1"
         id="stop4538-6" />
      <stop
         offset="0.06562372"
         style="stop-color:#dddddd;stop-opacity:1"
         id="stop4540-7" />
      <stop
         offset="0.66093999"
         style="stop-color:#abacae;stop-opacity:1"
         id="stop4542-5" />
      <stop
         offset="1"
         style="stop-color:#89898b;stop-opacity:1"
         id="stop4544-3" />
    </radialGradient>
  </defs>
  <metadata
     id="metadata4225">
    <rdf:RDF>
      <cc:Work
         rdf:about="">
        <dc:format>image/svg+xml</dc:format>
        <dc:type
           rdf:resource="http://purl.org/dc/dcmitype/StillImage" />
        <dc:title></dc:title>
      </cc:Work>
    </rdf:RDF>
  </metadata>
  <path
     id="rect5505-21-3-8-5-2"
     style="color:#000000;display:inline;overflow:visible;visibility:visible;opacity:1;fill:#555761;fill-opacity:1;fill-rule:nonzero;stroke:none;stroke-width:0.999995;marker:none;enable-background:accumulate"
     d="M 2.5,5 C 1.669,5 1,5.669 1,6.5 v 11 C 1,18.331 1.669,19 2.5,19 h 19 C 22.331,19 23,18.331 23,17.5 V 6.5 C 23,5.669 22.331,5 21.5,5 Z m 0.25,1 h 18.5 C 21.6655,6 22,6.3345 22,6.75 v 10.5 C 22,17.6655 21.6655,18 21.25,18 H 2.75 C 2.3345,18 2,17.6655 2,17.25 V 6.75 C 2,6.3345 2.3345,6 2.75,6 Z M 3.1992188,7 C 3.0884185,7 3,7.05575 3,7.125 v 0.75 C 3,7.94425 3.0884186,8 3.1992188,8 H 4.8007812 C 4.9115812,8 5,7.94425 5,7.875 V 7.125 C 5,7.05575 4.9115813,7 4.8007812,7 Z m 3,0 C 6.0884186,7 6,7.05575 6,7.125 v 0.75 C 6,7.94425 6.0884187,8 6.1992188,8 H 7.8007812 C 7.9115812,8 8,7.94425 8,7.875 V 7.125 C 8,7.05575 7.9115813,7 7.8007812,7 Z m 3,0 C 9.0884186,7 9,7.05575 9,7.125 v 0.75 C 9,7.94425 9.0884186,8 9.1992188,8 H 10.800781 C 10.911581,8 11,7.94425 11,7.875 V 7.125 C 11,7.05575 10.911581,7 10.800781,7 Z M 12.199219,7 C 12.088419,7 12,7.05575 12,7.125 v 0.75 C 12,7.94425 12.088419,8 12.199219,8 h 1.601562 C 13.911581,8 14,7.94425 14,7.875 V 7.125 C 14,7.05575 13.911581,7 13.800781,7 Z m 3,0 C 15.088419,7 15,7.05575 15,7.125 v 0.75 C 15,7.94425 15.088419,8 15.199219,8 h 1.601562 C 16.911581,8 17,7.94425 17,7.875 V 7.125 C 17,7.05575 16.911581,7 16.800781,7 Z m 3.101562,0 C 18.134581,7 18,7.05575 18,7.125 v 0.75 C 18,7.94425 18.134581,8 18.300781,8 h 2.398438 C 20.865419,8 21,7.94425 21,7.875 V 7.125 C 21,7.05575 20.865419,7 20.699219,7 Z M 3.1992188,9 C 3.0884185,9 3,9.1115 3,9.25 v 1.5 C 3,10.8885 3.0884186,11 3.1992188,11 H 4.8007812 C 4.9115812,11 5,10.8885 5,10.75 V 9.25 C 5,9.1115 4.9115813,9 4.8007812,9 Z m 3,0 C 6.0884186,9 6,9.1115 6,9.25 v 1.5 C 6,10.8885 6.0884187,11 6.1992188,11 H 7.8007812 C 7.9115812,11 8,10.8885 8,10.75 V 9.25 C 8,9.1115 7.9115813,9 7.8007812,9 Z m 3,0 C 9.0884186,9 9,9.1115 9,9.25 v 1.5 C 9,10.8885 9.0884186,11 9.1992188,11 H 10.800781 C 10.911581,11 11,10.8885 11,10.75 V 9.25 C 11,9.1115 10.911581,9 10.800781,9 Z M 12.199219,9 C 12.088419,9 12,9.1115 12,9.25 v 1.5 c 0,0.1385 0.08842,0.25 0.199219,0.25 h 1.601562 C 13.911581,11 14,10.8885 14,10.75 V 9.25 C 14,9.1115 13.911581,9 13.800781,9 Z m 3,0 C 15.088419,9 15,9.1115 15,9.25 v 1.5 c 0,0.1385 0.08842,0.25 0.199219,0.25 h 1.601562 C 16.911581,11 17,10.8885 17,10.75 V 9.25 C 17,9.1115 16.911581,9 16.800781,9 Z m 3.101562,0 C 18.134581,9 18,9.1115 18,9.25 v 1.5 c 0,0.1385 0.134581,0.25 0.300781,0.25 h 2.398438 C 20.865419,11 21,10.8885 21,10.75 V 9.25 C 21,9.1115 20.865419,9 20.699219,9 Z M 3.25,12 C 3.0838001,12 3,12.1115 3,12.25 v 1.5 C 3,13.8885 3.0838,14 3.25,14 h 2.5 C 5.9161999,14 6,13.8885 6,13.75 v -1.5 C 6,12.1115 5.9161999,12 5.75,12 Z m 3.9492188,0 C 7.0884186,12 7,12.1115 7,12.25 v 1.5 C 7,13.8885 7.0884187,14 7.1992188,14 H 8.8007812 C 8.9115814,14 9,13.8885 9,13.75 v -1.5 C 9,12.1115 8.9115814,12 8.8007812,12 Z m 3.0000002,0 C 10.088419,12 10,12.1115 10,12.25 v 1.5 c 0,0.1385 0.08842,0.25 0.199219,0.25 h 1.601562 C 11.911581,14 12,13.8885 12,13.75 v -1.5 C 12,12.1115 11.911581,12 11.800781,12 Z m 3,0 C 13.088419,12 13,12.1115 13,12.25 v 1.5 c 0,0.1385 0.08842,0.25 0.199219,0.25 h 1.601562 C 14.911581,14 15,13.8885 15,13.75 v -1.5 C 15,12.1115 14.911581,12 14.800781,12 Z m 3,0 C 16.088419,12 16,12.1115 16,12.25 v 1.5 c 0,0.1385 0.08842,0.25 0.199219,0.25 h 1.601562 C 17.911581,14 18,13.8885 18,13.75 v -1.5 C 18,12.1115 17.911581,12 17.800781,12 Z m 3,0 C 19.088419,12 19,12.1115 19,12.25 v 1.5 c 0,0.1385 0.08842,0.25 0.199219,0.25 h 1.601562 C 20.911581,14 21,13.8885 21,13.75 v -1.5 C 21,12.1115 20.911581,12 20.800781,12 Z M 3.25,15 C 3.0838001,15 3,15.1115 3,15.25 v 1.5 C 3,16.8885 3.0838,17 3.25,17 h 2.5 C 5.9161999,17 6,16.8885 6,16.75 v -1.5 C 6,15.1115 5.9161999,15 5.75,15 Z m 3.9492188,0 C 7.0884186,15 7,15.1115 7,15.25 v 1.5 C 7,16.8885 7.0884187,17 7.1992188,17 H 8.8007812 C 8.9115814,17 9,16.8885 9,16.75 v -1.5 C 9,15.1115 8.9115814,15 8.8007812,15 Z M 10.25,15 C 9.8622,15 10,15.1115 10,15.25 v 1.5 C 10,16.8885 9.8622,17 10.25,17 h 6.5 C 17.1378,17 17,16.8885 17,16.75 v -1.5 C 17,15.1115 17.1378,15 16.75,15 Z m 8,0 C 18.0838,15 18,15.1115 18,15.25 v 1.5 c 0,0.1385 0.0838,0.25 0.25,0.25 h 2.5 C 20.9162,17 21,16.8885 21,16.75 v -1.5 C 21,15.1115 20.9162,15 20.75,15 Z" />
</svg>
